X: 14401
T: Galway Belle, The
R: polka
M: 2/4
K: Eminor
|:E>F GA|Be B2|AF dF|EF D2|
E>F GA|Be B2|AF dF|E2 E2:|
e2 B2|e2 B2|AF dF|EF D2|
e2 B2|e2 B2|AF dF|E2 E2|
e2 B2|e2 B2|AF dF|EF D2|
E>F GA|Be B2|AF dF|E2 E2|

